assets/icons/svg/message-fill.svg

<svg width="24" height="24" viewBox="0 0 24 24" fill="none" xmlns="http://www.w3.org/2000/svg">
<path d="M2 8.99401C1.99947 8.20622 2.15435 7.42605 2.45577 6.6982C2.75718 5.97034 3.19921 5.30909 3.75655 4.75232C4.31388 4.19554 4.97558 3.75417 5.70373 3.45348C6.43189 3.1528 7.21221 2.9987 8 3.00001H16C19.313 3.00001 22 5.69501 22 8.99401V21H8C4.687 21 2 18.305 2 15.006V8.99401ZM14 11V13H16V11H14ZM8 11V13H10V11H8Z" fill="black"/>
</svg>

<!-- message-3-fill.svg -->
<svg xmlns="http://www.w3.org/2000/svg" viewBox="0 0 24 24" width="240" height="240">
  <path fill="none" d="M0 0h24v24H0z" />
  <path d="M2 8.994A5.99 5.99 0 0 1 8 3h8c3.313 0 6 2.695 6 5.994V21H8c-3.313 0-6-2.695-6-5.994V8.994zM14 11v2h2v-2h-2zm-6 0v2h2v-2H8z" fill="#000" />
</svg>
